outputs/icons/navigation/cancel_round.svg

<svg xmlns="http://www.w3.org/2000/svg" width="1200" height="1200" fill="none"><g clip-path="url(#a)"><path fill="#000" d="M600 100c-276.5 0-500 223.5-500 500s223.5 500 500 500 500-223.5 500-500-223.5-500-500-500m215 715c-19.5 19.5-51 19.5-70.5 0L600 670.5 455.5 815c-19.5 19.5-51 19.5-70.5 0s-19.5-51 0-70.5L529.5 600 385 455.5c-19.5-19.5-19.5-51 0-70.5s51-19.5 70.5 0L600 529.5 744.5 385c19.5-19.5 51-19.5 70.5 0s19.5 51 0 70.5L670.5 600 815 744.5c19 19 19 51 0 70.5"/></g><defs><clipPath id="a"><path fill="#fff" d="M0 0h1200v1200H0z"/></clipPath></defs></svg>

<svg width="1200" height="1200" viewBox="0 0 1200 1200" fill="none" xmlns="http://www.w3.org/2000/svg"><g clip-path="url(#clip0_225_2893)"><path d="M600 100C323.5 100 100 323.5 100 600C100 876.5 323.5 1100 600 1100C876.5 1100 1100 876.5 1100 600C1100 323.5 876.5 100 600 100ZM815 815C795.5 834.5 764 834.5 744.5 815L600 670.5L455.5 815C436 834.5 404.5 834.5 385 815C365.5 795.5 365.5 764 385 744.5L529.5 600L385 455.5C365.5 436 365.5 404.5 385 385C404.5 365.5 436 365.5 455.5 385L600 529.5L744.5 385C764 365.5 795.5 365.5 815 385C834.5 404.5 834.5 436 815 455.5L670.5 600L815 744.5C834 763.5 834 795.5 815 815Z" fill="#1D1E23"/></g><defs><clipPath id="clip0_225_2893"><path width="24" fill="white" d="M0 0H1200V1200H0V0z"/></clipPath></defs></svg>
